X: 1
T: Wiston Lodge
C:George Meikle
R:reel
Z:2007 John Chambers <jc:trillian.mit.edu>
N:\251 George Meikle <george.meikle:btinternet.com>
N:George wrote:
N:The tune was written many years ago when I used to play  regularly  for  very
N:popular  SCD weekends which were held at Wiston Lodge.  It was initially used
N:as the original tune for WELCOME TO WISTON but has subsequently been used for
N:the following dances also:-
N:  BOUNCING BRAIDS
N:  DEVIL'S ELBOW {1}
N:  EDINBURGH EXILES, The
N:  SQUIGGLY DANCE, The
N:  TARTAN DAY REEL, The
M:C|
L:1/8
K:A
"E7"ed \
| "A"cdec "A7"ABcA | "D"FGAF "Bm"D2F2 | "A"EAcA "(F#m)"ecBA | "Bm"B4 "E"B2 ||
y"E7"ed \
| "A"cdec "A7"ABcA | "D"FGAF "Bm"D2F2 | "A"EAcA "E7"BEGB | "A"A4 A2 :|
|: "A7"AG \
| "D"FGAF "Bm"DFAF | "A"EAc[AE] "F#m"e2dc | "Bm"BcdB "E7"edcB | "A"AEBE c2 ||
y"A7"AG \
| "D"FGAF "Bm"DFAF | "A"EAc[AE] "F#m"e2dc | "Bm"BcdB "E7"edcB | "A"A4 A2 :|

%%sep 1 1 500
%%sep 1 1 500

